X:2005
T:Miss Burns's Reel
P:Miss Burns's Reel
C:Traditional?
R:Reel (8x32)
B:RSCDS 20-5
Z:Anselm Lingnau <anselm@strathspey.org>
M:C|
L:1/8
K:D
B|"D"A2FA dA FD|"A7"GEFD CEEB|"D"A2FA dA FA|"G"BG"A7"EA "D"FD DB|
  "D"A2FA dA FD|"A7"GEFD CEEB|"D"A2FA dA FA|"G"BG"A7"EA "D"FD D||
g|"D"fedf abaf|"A"ge"D"fd "Em"eBBg|"D"fedf abaf|f/g/a "A7"e/f/g "D"fddg|
  "D"fedf abaf|"A"ge"D"fd "Em"eBBg|"D"fe"A/C#"ec "D"dA"Bm"BF|\
                                              "Em"GB"A7"Eg "D"fdd|]
